Adwaita++/actions/22/preview-render-on.svg

<svg fill="none" height="22" viewBox="0 0 22 22" width="22" xmlns="http://www.w3.org/2000/svg">
  <path clip-rule="evenodd" d="m7 3h2v4h1v-2h2v2h1v-2h2v2h1v-4h2v4h1v2h-16v-2h1v-2h2v2h1z" fill="#444" fill-rule="evenodd"/>
  <path clip-rule="evenodd" d="m11 17.5c1.6568 0 3-1.3431 3-3 0-1.6568-1.3432-3-3-3-1.65685 0-3 1.3432-3 3 0 1.6569 1.34315 3 3 3zm0 1.5c2.4853 0 4.5-2.0147 4.5-4.5s-2.0147-4.5-4.5-4.5c-2.48528 0-4.5 2.0147-4.5 4.5s2.01472 4.5 4.5 4.5z" fill="#444" fill-rule="evenodd"/>
  <path d="m11 16c.8284 0 1.5-.6716 1.5-1.5s-.6716-1.5-1.5-1.5-1.5.6716-1.5 1.5.6716 1.5 1.5 1.5z" fill="#e01b24"/>
</svg>

<svg xmlns="http://www.w3.org/2000/svg" fill="none" width="22" height="22" viewBox="0 0 22 22">
 <path fill="#444" fill-rule="evenodd" d="M7 3H9V7H10V5H12V7H13V5H15V7H16V3H18V7H19V9H3V7H4V5H6V7H7V3Z" clip-rule="evenodd"/>
 <path fill="#444" fill-rule="evenodd" d="M11 17.5C12.6568 17.5 14 16.1569 14 14.5C14 12.8432 12.6568 11.5 11 11.5C9.34315 11.5 8 12.8432 8 14.5C8 16.1569 9.34315 17.5 11 17.5ZM11 19C13.4853 19 15.5 16.9853 15.5 14.5C15.5 12.0147 13.4853 10 11 10C8.51472 10 6.5 12.0147 6.5 14.5C6.5 16.9853 8.51472 19 11 19Z" clip-rule="evenodd"/>
 <path fill="#E01B24" d="M11 16C11.8284 16 12.5 15.3284 12.5 14.5C12.5 13.6716 11.8284 13 11 13C10.1716 13 9.5 13.6716 9.5 14.5C9.5 15.3284 10.1716 16 11 16Z"/>
</svg>
